X:1
T:Abide with Me
T:Abide with Me
T:S . M. Chase
T:Kate Galpin Perkins, 1901
T:Public Domain Courtesy of the Cyber Hymnal™
T:Public Domain Courtesy of the Cyber Hymnal™
C:S . M. Chase
Z:Public Domain
Z:Courtesy of the Cyber Hymnal™
%%score ( 1 2 ) ( 3 4 )
L:1/8
Q:1/4=95
M:4/4
K:F
V:1 treble 
V:2 treble 
V:3 bass 
V:4 bass 
V:1
 C2 | F3 G A^GAF | F2 E4 (EF) | G3 G A2 G2 | (F4 C2) C2 | F3 G A^GAc x5 | c2 B4 (FG) | %7
w: 1.~“I|am the vine, ye are the|branch- es,” The *|Mas- ter’s voice fell|low * Up-|on the ears of His dis-|ci- ples, That *|
w: 2.~“He|that in Me a- bid- eth|ev- er,” So *|ran the Mas- ter’s|word; * “Shall|bring forth fruit un- to the|har- vest, And *|
w: 3.~“He|that a- bid- eth not is|wi- thered, Cast *|out that branch shall|be; * For|with- out Me ye can do|no- thing, O *|
w: 4.~“So|shall ye be My own dis-|ci- ples, My *|life shall dwell in|you; * And|what- so- ev- er ye shall|ask Me That *|
 A2 (^GA) B2 E2 x6 | F6 ||"^Refrain" c2 | d<(c c7/2-) c2 A2 | B<(A- [FA]2 A3) [Fc]2 | %12
w: night so * long a-|go.||||
w: great is * his re-|ward.”|For-|ev- er, * * for-|ev- er… * * My|
w: soul, a- * bide in|Me.,”||||
w: will I * sure- ly|do.”||||
 [Fd]/ [Fd]3 [Fd]/ [Ec]2 [F=B]2 | c6 !fermata!c2 | d<(c- c7/2-) c2 A2 | B<(A- A3-) A2 [Fd]2 | %16
w: ||||
w: Sav- ior, a- bide with|me! For-|ev- er, * * for-|ev- er… * * My|
w: ||||
w: ||||
 [Fc] [FA]2 F [EA]2 [EG]2 | F6 |] %18
w: ||
w: Sav- ior, a- bide with|me!|
w: ||
w: ||
V:2
 C2 | x8 | x8 | x8 | x8 | x13 | x8 | x14 | x6 || x2 | x2 (A2 A<A) x7/2 | x4 (F<F) x3 | x8 | %13
 (E2 E>F G2) x2 | x2 (A2 A<A) x7/2 | x2 (F2 F<F) x3 | x3 F x4 | F6 |] %18
V:3
 A,2 | A,3 B, C=B,CA, | A,2 G,4 x2 | B,3 B, C2 B,2 | [F,,A,]6 A,2 | A,3 x10 | E2 D4 _D2 | %7
w: ~|~ ~ ~ ~ ~ ~|~ ~|~ ~ ~ ~|~ ~|~|~ ~ ~|
 C2 D2 x10 | [F,,A,]6 || z2 | z2 [F,C]2 [F,C]<[F,C] C2 x3/2 | D<C [F,C]2 [F,C]<[F,C] [F,A,]2 x | %12
w: ~ ~|~||~ ~ ~ ~|~ ~ ~ ~ ~ ~|
 [D,A,]/ [D,A,]3 [F,A,]/ G,2 [G,,G,]2 | G,2 G,>A, !fermata!z2 x2 | z2 [F,C]2 [F,C]<[F,C] D2 x3/2 | %15
w: ~ ~ and ev- er!|~ ~ ~|~ ~ ~ ~|
 D<C [F,C]2 [F,C]<[F,C] [B,,B,]2 x | [C,A,] [C,C]2 [C,A,] [C,C]2 [C,B,]2 | [F,A,]6 |] %18
w: a- bide Thou with me! and|ev- er! ~ ~ ~|and|
V:4
 x2 | F,,8 | C,6 (G,A,) | C,,8 | x8 | F,,8 B,C=B,C_E | B,,6 x2 | C,6 (=B,C) C,,4 (CB,) | x6 || x2 | %10
 x19/2 | x9 | x4 G,2 x2 | C,6 B,2 | x19/2 | x9 | x8 | x6 |] %18

